modules/hawcons-stroke/icons/cloud-sun.svg

<?xml version="1.0" encoding="UTF-8" standalone="no"?>
<svg width="32px" height="32px" viewBox="0 0 32 32" version="1.1" xmlns="http://www.w3.org/2000/svg" xmlns:xlink="http://www.w3.org/1999/xlink" xmlns:sketch="http://www.bohemiancoding.com/sketch/ns">
    <!-- Generator: Sketch 3.0.3 (7891) - http://www.bohemiancoding.com/sketch -->
    <title>icon 2 cloud sun</title>
    <desc>Created with Sketch.</desc>
    <defs></defs>
    <g id="Page-1" stroke="none" stroke-width="1" fill="none" fill-rule="evenodd" sketch:type="MSPage">
        <g id="icon-2-cloud-sun" sketch:type="MSArtboardGroup" fill="#929292">
            <path d="M7.10100919,15.1021544 C5.32460991,15.5117359 4,17.1046097 4,19 C4,21.209139 5.79793835,23 8.00281647,23 L24.9971835,23 C27.207878,23 29,21.2046438 29,19 C29,17.1225574 27.70144,15.5472159 25.9581226,15.1164746 L25.9581226,15.1164746 C25.9857342,14.9149284 26,14.7091302 26,14.5 C26,12.0147185 23.9852815,10 21.5,10 C20.2744589,10 19.1633432,10.489913 18.3518132,11.2845787 C17.3608691,9.33540592 15.336385,8 13,8 C9.68629134,8 7,10.6862913 7,14 C7,14.3764904 7.03467626,14.7448817 7.10100919,15.1021544 L7.10100919,15.1021544 Z M24.9534131,10.2191122 C24.984146,9.983761 25,9.74373194 25,9.5 C25,6.46243373 22.5375663,4 19.5,4 C17.2971895,4 15.3968409,5.29499266 14.5187269,7.16520533 L14.5187269,7.16520533 C14.0297369,7.0570341 13.521529,7 13,7 C9.13400656,7 6,10.1340066 6,14 C6,14.1381509 6.00400207,14.275367 6.01189661,14.4115388 C4.23965876,15.1816085 3,16.9491311 3,19 C3,21.7614237 5.23249418,24 7.99943992,24 L25.0005601,24 C27.7616745,24 30,21.7558048 30,19 C30,16.9483386 28.7676457,15.1852931 26.9993494,14.4145295 C26.9735292,12.7196655 26.1810757,11.2107183 24.9534131,10.2191122 L24.9534131,10.2191122 L24.9534131,10.2191122 Z M23.998929,9.5991622 C23.9996418,9.56619424 24,9.53313895 24,9.5 C24,7.0147185 21.9852815,5 19.5,5 C17.7507549,5 16.2346236,5.99807813 15.4900199,7.45582047 C16.7434413,7.93301046 17.8243683,8.75995689 18.6135384,9.81739735 C19.4525719,9.29909701 20.441357,9 21.5,9 C22.399795,9 23.2491234,9.21607283 23.998929,9.5991622 L23.998929,9.5991622 L23.998929,9.5991622 Z M19.5,0 C19.2238576,0 19,0.215752602 19,0.495388985 L19,2.50461102 C19,2.7782068 19.2319336,3 19.5,3 C19.7761424,3 20,2.7842474 20,2.50461102 L20,0.495388985 C20,0.221793203 19.7680664,0 19.5,0 L19.5,0 Z M26.2330514,2.78892122 C26.0377893,2.59365907 25.7269379,2.58792796 25.5292051,2.78566074 L24.1084706,4.20639526 C23.9150092,4.3998567 23.9221795,4.72068999 24.1117311,4.91024156 C24.3069932,5.10550371 24.6178446,5.11123483 24.8155774,4.91350204 L26.2363119,3.49276752 C26.4297733,3.29930609 26.422603,2.97847279 26.2330514,2.78892122 L26.2330514,2.78892122 Z M29.0219727,9.52197266 C29.0219727,9.24583028 28.8062201,9.02197266 28.5265837,9.02197266 L26.5173616,9.02197266 C26.2437659,9.02197266 26.0219727,9.25390625 26.0219727,9.52197266 C26.0219727,9.79811503 26.2377253,10.0219727 26.5173616,10.0219727 L28.5265837,10.0219727 C28.8001795,10.0219727 29.0219727,9.79003906 29.0219727,9.52197266 L29.0219727,9.52197266 Z M12.7669486,2.78892122 C12.5716864,2.98418337 12.5659553,3.29503474 12.7636881,3.49276752 L14.1844226,4.91350204 C14.377884,5.10696348 14.6987173,5.09979314 14.8882689,4.91024156 C15.0835311,4.71497942 15.0892622,4.40412805 14.8915294,4.20639526 L13.4707949,2.78566074 C13.2773334,2.59219931 12.9565001,2.59936965 12.7669486,2.78892122 L12.7669486,2.78892122 Z" id="cloud-sun" sketch:type="MSShapeGroup"></path>
        </g>
    </g>
</svg>

<svg width="32" height="32" xmlns="http://www.w3.org/2000/svg"><path d="M7.101 15.102A4.006 4.006 0 0 0 4 19c0 2.21 1.798 4 4.003 4h16.994A4.004 4.004 0 0 0 29 19a4.006 4.006 0 0 0-3.042-3.884 4.5 4.5 0 0 0-7.606-3.832 6 6 0 0 0-11.25 3.818H7.1zm17.852-4.883a5.5 5.5 0 0 0-10.435-3.054 7 7 0 0 0-8.507 7.246A5.006 5.006 0 0 0 3 19c0 2.761 2.232 5 5 5h17c2.762 0 5-2.244 5-5a4.998 4.998 0 0 0-3-4.585 5.49 5.49 0 0 0-2.047-4.196zM24 9.6L24 9.5a4.5 4.5 0 0 0-8.51-2.044 7.02 7.02 0 0 1 3.124 2.361A5.474 5.474 0 0 1 21.5 9c.9 0 1.75.216 2.499.6zM19.5 0c-.276 0-.5.216-.5.495v2.01c0 .273.232.495.5.495.276 0 .5-.216.5-.495V.495A.503.503 0 0 0 19.5 0zm6.733 2.789a.494.494 0 0 0-.704-.003l-1.42 1.42a.503.503 0 0 0 .003.704.494.494 0 0 0 .704.004l1.42-1.421a.503.503 0 0 0-.003-.704zm2.789 6.733c0-.276-.216-.5-.495-.5h-2.01a.503.503 0 0 0-.495.5c0 .276.216.5.495.5h2.01a.503.503 0 0 0 .495-.5zM12.767 2.789a.494.494 0 0 0-.003.704l1.42 1.42a.503.503 0 0 0 .704-.003.494.494 0 0 0 .004-.704l-1.421-1.42a.503.503 0 0 0-.704.003z" fill="#929292" fill-rule="evenodd"/></svg>
